!!!COM: Music21
!!!OTL: Pasodoble dos tres roncos
!!!OMV: pezas_pasodobles_pasodoble-dos-tres-roncos_pasodoble-dos-tres-roncos-partitura.musicxml
**kern
*part1
*staff1
*I"Gaita
*I'Bag
*clefG^2
*k[]
*M2/4
*MM120
=1
!LO:TX:a:t=[quarter]=120
4r
8ccL
8ddJ
=||
8eeL
16eeL
16ddJJ
8ccL
8ddJ
=
8eeL
8ddJ
8ccL
8ddJ
=
24ffLL
24gg
24ffJJ
[4.ee
=
4ee]
8ccL
8ddJ
=
8eeL
16eeL
16ddJJ
8ccL
8ddJ
=
8eeL
8ggJ
8ffL
8eemJ
=
[2dd
!!linebreak:original
=
4dd]
8ddL
8eeJ
=
8ffL
16ffL
16eeJJ
8ddL
8eeJ
=
8ffL
8eeJ
8ddL
8eeJ
=
24ggLL
24aa
24ggJJ
[4.ff
=
4ff]
8ffL
8ggJ
=
4.ee
8ff
=
8ddL
16eeL
16ddJJ
8ccL
8bJ
=
[2cc
!!linebreak:original
=
4cc]
8ccL
8ddJ
=||
8eeL
16eeL
16ddJJ
8ccL
8ddJ
=
8eeL
8ddJ
8ccL
8ddJ
=
24ffLL
24gg
24ffJJ
[4.ee
=
4ee]
8ccL
8ddJ
=
8eeL
16eeL
16ddJJ
8ccL
8ddJ
=
8eeL
8ggJ
8ffL
8eemJ
=
[2dd
!!linebreak:original
=
4dd]
8ddL
8eeJ
=
8ffL
16ffL
16eeJJ
8ddL
8eeJ
=
8ffL
8eeJ
8ddL
8eeJ
=
24ggLL
24aa
24ggJJ
[4.ff
=
4ff]
8ffL
8ggJ
=
4.ee
8ff
=
8ddL
16eeL
16ffJJ
8eeL 8gg
8ddJ 8bb
=
[2cc [2ccc
!!linebreak:original
=
4cc',] 4ccc]
8ccL
8ddJ
=||
4ee
8ddL
8eeJ
=
[2ff
.
.
.
.
=
2ff_
.
.
.
.
=
4ff]
8ffL 8bb
8ggJ 8ccc
!!linebreak:original
=
6aa 6ddd
6gg 6ccc
6ff 6bb
=
24aaLL
24bb
24aaJJ
[4.gg
.
=
2gg_
.
.
.
=
4gg]
8eeL
8ffJ
=
4gg
8aaL
8ggJ
=
[2ff
.
=
2ff_
.
.
.
=
4ff]
8ddL
8eeJ
!!pagebreak:original
=
6ff
6ee
6dd
=
24ffLL
24gg
24ffJJ
[4.ee
=
2ee_
=
4ee',]
8ccL
8ddJ
=||
4ee
8ddL
8eeJ
=
[2ff
.
.
.
.
=
2ff_
.
.
.
.
=
4ff]
8ffL 8bb
8ggJ 8ccc
!!linebreak:original
=
6aa 6ddd
6gg 6ccc
6ff 6bb
=
24aaLL
24bb
24aaJJ
[4.gg
.
=
2gg_
.
.
.
=
4gg]
8eeL
8ffJ
=
4gg
8aaL
8ggJ
=
[2ff
.
=
2ff_
.
.
.
=
4ff]
8ddL
8eeJ
!!linebreak:original
=
6ff
6ee
6dd
=
24ffLL
24gg
24ffJJ
[4.ee
=
4ee',]
8ccL
8ddJ
!!linebreak:original
=||
8eeL
16eeL
16ddJJ
8ccL
8ddJ
=
8eeL
8ddJ
8ccL
8ddJ
=
24ffLL
24gg
24ffJJ
[4.ee
=
4ee]
8ccL
8ddJ
=
8eeL
16eeL
16ddJJ
8ccL
8ddJ
=
8eeL
8ggJ
8ffL
8eemJ
=
[2dd
=
4dd]
8ddL
8eeJ
!!pagebreak:original
=
8ffL
16ffL
16eeJJ
8ddL
8eeJ
=
8ffL
8eeJ
8ddL
8eeJ
=
24ggLL
24aa
24ggJJ
[4.ff
=
4ff]
8ffL
8ggJ
=
4.ee
8ff
=
8ddL
16eeL
16ddJJ
8ccL
8bJ
=
[2cc
=
4cc]
8ccL
8ddJ
!!linebreak:original
=||
8eeL
16eeL
16ddJJ
8ccL
8ddJ
=
8eeL
8ddJ
8ccL
8ddJ
=
24ffLL
24gg
24ffJJ
[4.ee
=
4ee]
8ccL
8ddJ
=
8eeL
16eeL
16ddJJ
8ccL
8ddJ
=
8eeL
8ggJ
8ffL
8eemJ
=
[2dd
=
4dd]
8ddL
8eeJ
!!pagebreak:original
=
8ffL
16ffL
16eeJJ
8ddL
8eeJ
=
8ffL
8eeJ
8ddL
8eeJ
=
24ggLL
24aa
24ggJJ
[4.ff
=
4ff]
8ffL
8ggJ
=
4.ee
8ff
=
8ddL
16eeL
16ddJJ
8ccL
8bJ
!!linebreak:original
=
8ccL
16ddL
16eeJJ
16ffLL
16gg
16aa
16bbJJ
=
4ccc'
4bb~
=
4ccc'
4r
==
*-
!!!system-decoration: s1,s2
